contributed-vectors/unionbank.svg

<?xml version="1.0" encoding="UTF-8" standalone="no"?>
<svg
   xmlns:dc="http://purl.org/dc/elements/1.1/"
   xmlns:cc="http://creativecommons.org/ns#"
   xmlns:rdf="http://www.w3.org/1999/02/22-rdf-syntax-ns#"
   xmlns:svg="http://www.w3.org/2000/svg"
   xmlns="http://www.w3.org/2000/svg"
   xmlns:sodipodi="http://sodipodi.sourceforge.net/DTD/sodipodi-0.dtd"
   xmlns:inkscape="http://www.inkscape.org/namespaces/inkscape"
   sodipodi:docname="unionbank.svg"
   inkscape:version="1.0.1 (3bc2e813f5, 2020-09-07)"
   version="1.1"
   id="svg2"
   viewBox="0 0 192 192"
   height="192"
   width="192"
   inkscape:export-filename="/home/jphilippe/inkscape/icônes/delta-github/png/unionbank.png"
   inkscape:export-xdpi="96"
   inkscape:export-ydpi="96">
  <sodipodi:namedview
     inkscape:document-rotation="0"
     inkscape:window-maximized="1"
     inkscape:window-y="0"
     inkscape:window-x="36"
     inkscape:window-height="1052"
     inkscape:window-width="1884"
     units="px"
     showgrid="false"
     inkscape:current-layer="layer1"
     inkscape:document-units="px"
     inkscape:cy="78.252564"
     inkscape:cx="-101.02743"
     inkscape:zoom="1.4142136"
     inkscape:pageshadow="2"
     inkscape:pageopacity="0.0"
     borderopacity="1.0"
     bordercolor="#666666"
     pagecolor="#ffffff"
     id="base"
     inkscape:snap-bbox="false"
     inkscape:object-paths="true"
     inkscape:snap-nodes="true"
     showguides="true"
     inkscape:guide-bbox="true"
     inkscape:snap-object-midpoints="true"
     inkscape:snap-center="true"
     inkscape:snap-global="false"
     inkscape:snap-intersection-paths="true"
     inkscape:snap-smooth-nodes="true"
     inkscape:snap-midpoints="true" />
  <defs
     id="defs4" />
  <metadata
     id="metadata7">
    <rdf:RDF>
      <cc:Work
         rdf:about="">
        <dc:format>image/svg+xml</dc:format>
        <dc:type
           rdf:resource="http://purl.org/dc/dcmitype/StillImage" />
        <dc:title />
      </cc:Work>
    </rdf:RDF>
  </metadata>
  <g
     transform="translate(0,-860.36216)"
     id="layer1"
     inkscape:groupmode="layer"
     inkscape:label="Calque 1">
    <path
       id="path839"
       style="fill:#f8c18c;fill-opacity:1;fill-rule:evenodd;stroke:none;stroke-width:1.52838"
       d="M 27.605469 19.998047 L 27.605469 122.79688 C 27.605469 159.51745 60.91862 175.05183 81.384766 171.50977 C 105.81525 167.28229 116.83203 148.40685 116.83203 127.97852 L 116.83203 120.72656 L 134.06836 121.31445 C 139.76907 121.31445 144.00781 126.28541 144.00781 131.49609 C 144.00781 136.11748 140.78005 141.09286 134.13867 141.66797 L 124.66797 142.39062 C 123.14904 148.62548 119.85894 157.23212 112.4707 165.83203 L 140.22266 160.92383 C 151.39876 158.90227 164.39453 149.19903 164.39453 133.16992 C 164.39453 126.34105 162.08669 116.34567 151.6543 109.42383 C 151.6543 109.42383 159.03125 102.08913 159.03125 88.275391 C 159.03125 76.74477 151.26115 63.966716 137.57031 59.15625 L 92.564453 43.189453 L 92.419922 121.27539 C 92.419922 121.27539 92.433062 132.58434 79.818359 134.97461 C 71.372863 136.57547 63.142578 128.93087 63.142578 119.42969 C 63.153582 119.43122 63.187038 57.889431 63.152344 32.667969 L 27.605469 19.998047 z M 116.83203 76.097656 C 118.41084 76.488418 128.80664 79.015625 128.80664 79.015625 C 135.17385 80.27457 138.41406 84.905631 138.41406 90.455078 C 138.41406 96.006099 133.47325 100.98465 126.00781 100.01562 C 119.61697 99.186832 116.83203 98.851563 116.83203 98.851562 L 116.83203 76.097656 z "
       transform="translate(0,860.36216)" />
  </g>
  <style
     type="text/css"
     id="style853">
	.st0{fill:#FFFFFF;}
</style>
  <style
     type="text/css"
     id="style853-9">
	.st0{fill:#FFFFFF;}
</style>
  <style
     type="text/css"
     id="style853-3">
	.st0{fill:#FFFFFF;}
</style>
</svg>

<svg xmlns="http://www.w3.org/2000/svg" id="svg2" width="192" height="192" version="1.1"><g id="layer1" transform="translate(0 -860.362)"><path id="path839" d="M27.605 19.998v102.799c0 36.72 33.314 52.255 53.78 48.713 24.43-4.228 35.447-23.103 35.447-43.531v-7.252l17.236.587c5.701 0 9.94 4.971 9.94 10.182 0 4.621-3.228 9.597-9.87 10.172l-9.47.723c-1.519 6.234-4.81 14.841-12.197 23.441l27.752-4.908c11.176-2.022 24.172-11.725 24.172-27.754 0-6.829-2.308-16.824-12.74-23.746 0 0 7.376-7.335 7.376-21.149 0-11.53-7.77-24.308-21.46-29.119L92.563 43.19l-.144 78.086s.013 11.31-12.602 13.7c-8.445 1.6-16.675-6.044-16.675-15.545.01.001.044-61.54.01-86.762l-35.548-12.67zm89.227 56.1c1.579.39 11.975 2.918 11.975 2.918 6.367 1.259 9.607 5.89 9.607 11.44s-4.94 10.529-12.406 9.56c-6.391-.83-9.176-1.164-9.176-1.164V76.098z" style="fill:#f8c18c;fill-opacity:1;fill-rule:evenodd;stroke:none;stroke-width:1.52838" transform="translate(0 860.362)"/></g><style id="style853" type="text/css">.st0{fill:#fff}</style></svg>
